;FLAVOR:Marlin
;TIME:9100
;Filament used: 3.78455m
;Layer height: 0.2
;MINX:80.627
;MINY:98.406
;MINZ:0.2
;MAXX:147.289
;MAXY:136.593
;MAXZ:48
;Generated with Cura_SteamEngine 4.8.0
T2
M140 S50
M105
M190 S50
M104 S195
M105
M109 S195
M82 ;absolute extrusion mode
; Ender 3 Custom Start G-code
G92 E0 ; Reset Extruder
G28 ; Home all axes
G1 Z2.0 F3000 ; Move Z Axis up little to prevent scratching of Heat Bed
G1 X0.1 Y20 Z0.3 F5000.0 ; Move to start position
G1 X0.1 Y200.0 Z0.3 F1500.0 E15 ; Draw the first line
G1 X0.4 Y200.0 Z0.3 F5000.0 ; Move to side a little
G1 X0.4 Y20 Z0.3 F1500.0 E30 ; Draw the second line
G92 E0 ; Reset Extruder
G1 Z2.0 F3000 ; Move Z Axis up little to prevent scratching of Heat Bed
G1 X5 Y20 Z0.3 F5000.0 ; Move over to prevent blob squish
G92 E0
G92 E0
G1 F2700 E-4
;LAYER_COUNT:240
;LAYER:0
M107
G0 F6000 X85.333 Y102.704 Z0.2
;TYPE:SKIRT
G1 F2700 E0
G1 F1200 X85.497 Y102.573 E0.00698
G1 X86.254 Y102.02 E0.03816
G1 X86.819 Y101.666 E0.06034
G1 X86.987 Y101.568 E0.06681
G1 X87.817 Y101.131 E0.098
G1 X88.351 Y100.895 E0.11742
G1 X88.631 Y100.78 E0.12749
G1 X89.513 Y100.461 E0.15869
G1 X90.273 Y100.251 E0.18491
G1 X90.619 Y100.169 E0.19674
G1 X91.54 Y99.992 E0.22793
G1 X92.216 Y99.913 E0.25057
G1 X92.857 Y99.858 E0.27197
G1 X93.13 Y99.838 E0.28107
G1 X115.656 Y98.47 E1.03167
G1 X116.351 Y98.436 E1.05481
G1 X116.642 Y98.426 E1.0645
G1 X117.447 Y98.408 E1.09128
G1 X117.865 Y98.406 E1.10518
G1 X118.286 Y98.417 E1.11919
G1 X118.782 Y98.438 E1.1357
G1 X119.122 Y98.457 E1.14703
G1 X119.64 Y98.495 E1.1643
G1 X119.956 Y98.523 E1.17485
G1 X120.493 Y98.578 E1.19281
G1 X120.795 Y98.613 E1.20292
G1 X121.14 Y98.658 E1.21449
G1 X121.44 Y98.702 E1.22457
G1 X121.667 Y98.738 E1.23222
G1 X121.997 Y98.795 E1.24336
G1 X122.734 Y98.935 E1.26831
G1 X123.041 Y98.998 E1.27873
G1 X123.255 Y99.045 E1.28602
G1 X123.538 Y99.111 E1.29568
G1 X124.14 Y99.26 E1.31631
G1 X124.598 Y99.384 E1.33209
G1 X125.163 Y99.55 E1.35168
G1 X125.607 Y99.691 E1.36717
G1 X126.168 Y99.882 E1.38688
G1 X126.603 Y100.04 E1.40228
G1 X127.041 Y100.21 E1.4179
G1 X127.323 Y100.324 E1.42802
G1 X127.875 Y100.556 E1.44794
G1 X128.396 Y100.791 E1.46695
G1 X129.152 Y101.156 E1.49487
G1 X129.485 Y101.324 E1.50727
G1 X129.801 Y101.49 E1.51914
G1 X130.278 Y101.751 E1.53723
G1 X130.617 Y101.945 E1.55022
G1 X130.846 Y102.082 E1.5591
G1 X131.277 Y102.348 E1.57594
G1 X131.472 Y102.471 E1.58361
G1 X131.769 Y102.663 E1.59537
G1 X132.028 Y102.836 E1.60573
G1 X132.495 Y103.157 E1.62458
G1 X132.914 Y103.459 E1.64176
G1 X133.366 Y103.802 E1.66063
G1 X133.638 Y104.016 E1.67214
G1 X134.111 Y104.399 E1.69238
G1 X134.352 Y104.6 E1.70282
G1 X134.514 Y104.739 E1.70992
G1 X134.721 Y104.921 E1.71909
G1 X134.988 Y105.162 E1.73105
G1 X135.154 Y105.315 E1.73856
G1 X135.523 Y105.662 E1.75541
G1 X135.789 Y105.92 E1.76773
G1 X136.086 Y106.225 E1.78189
G1 X136.479 Y106.644 E1.801
G1 X136.743 Y106.935 E1.81407
G1 X137.327 Y107.604 E1.8436
G1 X137.562 Y107.882 E1.85571
G1 X137.833 Y108.214 E1.86996
G1 X138.134 Y108.601 E1.88627
G1 X138.472 Y109.055 E1.9051
G1 X138.623 Y109.262 E1.91362
G1 X138.948 Y109.724 E1.93241
G1 X139.059 Y109.887 E1.93897
G1 X139.286 Y110.235 E1.95278
G1 X139.587 Y110.715 E1.97163
G1 X139.847 Y111.151 E1.98851
G1 X140 Y111.422 E1.99886
G1 X140.329 Y112.053 E2.02253
G1 X140.437 Y112.277 E2.0308
G1 X140.808 Y113.138 E2.06199
G1 X141.09 Y113.977 E2.09143
G1 X141.127 Y114.104 E2.09582
G1 X141.351 Y115.015 E2.12703
G1 X141.452 Y115.605 E2.14694
G1 X141.495 Y115.902 E2.15692
G1 X141.59 Y116.835 E2.18811
G1 X141.588 Y118.156 E2.23205
G1 X141.583 Y118.237 E2.23475
G1 X141.536 Y118.78 E2.25287
G1 X141.513 Y118.986 E2.25977
G1 X141.369 Y119.912 E2.29094
G1 X141.054 Y121.128 E2.33272
G1 X140.984 Y121.346 E2.34033
G1 X140.66 Y122.226 E2.37152
G1 X140.328 Y122.945 E2.39786
G1 X140.188 Y123.222 E2.40818
G1 X139.978 Y123.618 E2.42309
G1 X139.725 Y124.053 E2.43983
G1 X139.417 Y124.556 E2.45945
G1 X139.093 Y125.055 E2.47924
G1 X138.627 Y125.731 E2.50654
G1 X138.37 Y126.088 E2.52117
G1 X138.217 Y126.292 E2.52966
G1 X138.04 Y126.522 E2.53931
G1 X137.621 Y127.051 E2.56175
G1 X137.185 Y127.556 E2.58394
G1 X137.19 Y127.56 E2.58416
G1 X136.467 Y128.369 E2.62024
G1 X135.998 Y128.862 E2.64288
G1 X135.476 Y129.378 E2.66729
G1 X135.273 Y129.574 E2.67667
G1 X135.109 Y129.728 E2.68416
G1 X134.875 Y129.941 E2.69468
G1 X134.611 Y130.175 E2.70641
G1 X134.416 Y130.344 E2.715
G1 X134.022 Y130.677 E2.73215
G1 X133.703 Y130.938 E2.74586
G1 X133.486 Y131.106 E2.75499
G1 X132.79 Y131.633 E2.78403
G1 X132.675 Y131.717 E2.78876
G1 X132.402 Y131.91 E2.79988
G1 X132.088 Y132.125 E2.81254
G1 X131.69 Y132.385 E2.82835
G1 X130.873 Y132.894 E2.86037
G1 X130.318 Y133.218 E2.88174
G1 X129.547 Y133.638 E2.91094
G1 X129.055 Y133.89 E2.92933
G1 X128.444 Y134.184 E2.95188
G1 X128.092 Y134.346 E2.96477
G1 X127.734 Y134.503 E2.97777
G1 X127.478 Y134.611 E2.98701
G1 X127.067 Y134.779 E3.00178
G1 X126.786 Y134.89 E3.01183
G1 X126.481 Y135.005 E3.02267
G1 X126.002 Y135.176 E3.03959
G1 X125.735 Y135.266 E3.04896
G1 X125.33 Y135.397 E3.06312
G1 X124.845 Y135.545 E3.07998
G1 X124.393 Y135.67 E3.09558
G1 X123.648 Y135.859 E3.12114
G1 X123.285 Y135.945 E3.13355
G1 X122.895 Y136.03 E3.14683
G1 X122.553 Y136.099 E3.15843
G1 X121.823 Y136.234 E3.18312
G1 X121.473 Y136.292 E3.19492
G1 X120.975 Y136.365 E3.21166
G1 X120.422 Y136.434 E3.2302
G1 X120.063 Y136.472 E3.24221
G1 X119.657 Y136.508 E3.25576
G1 X119.447 Y136.523 E3.26277
G1 X118.805 Y136.562 E3.28416
G1 X118.333 Y136.58 E3.29987
G1 X117.656 Y136.592 E3.32239
G1 X117.348 Y136.593 E3.33263
G1 X116.939 Y136.587 E3.34624
G1 X116.5 Y136.572 E3.36085
G1 X115.621 Y136.529 E3.39012
G1 X98.317 Y135.478 E3.96671
G1 X93.232 Y135.168 E4.13615
G1 X92.399 Y135.106 E4.16394
G1 X91.815 Y135.046 E4.18346
G1 X91.715 Y135.033 E4.18682
G1 X91.137 Y134.942 E4.20628
G1 X90.904 Y134.899 E4.21416
G1 X89.989 Y134.69 E4.24537
G1 X89.259 Y134.462 E4.27081
G1 X89.011 Y134.375 E4.27955
G1 X88.14 Y134.027 E4.31075
G1 X87.335 Y133.625 E4.34068
G1 X87.076 Y133.482 E4.35052
G1 X86.275 Y132.994 E4.38171
G1 X85.591 Y132.497 E4.40983
G1 X85.394 Y132.342 E4.41817
G1 X84.682 Y131.731 E4.44938
G1 X84.186 Y131.236 E4.47268
G1 X84.026 Y131.066 E4.48045
G1 X83.413 Y130.356 E4.51165
G1 X82.981 Y129.773 E4.53578
G1 X82.852 Y129.586 E4.54334
G1 X82.353 Y128.792 E4.57453
G1 X81.944 Y128.003 E4.60409
G1 X81.768 Y127.627 E4.61789
G1 X81.407 Y126.762 E4.64907
G1 X81.096 Y125.775 E4.68349
G1 X81.059 Y125.635 E4.6883
G1 X80.798 Y124.333 E4.73247
G1 X80.744 Y123.943 E4.74557
G1 X80.656 Y123.02 E4.7764
G1 X80.648 Y122.87 E4.7814
G1 X80.632 Y122.375 E4.79787
G1 X80.627 Y121.68 E4.82099
G1 X80.629 Y113.142 E5.10496
G1 X80.639 Y112.449 E5.12802
G1 X80.667 Y111.81 E5.14929
G1 X80.675 Y111.7 E5.15296
G1 X80.722 Y111.207 E5.16943
G1 X80.75 Y110.97 E5.17737
G1 X80.993 Y109.63 E5.22266
G1 X81.044 Y109.423 E5.22975
G1 X81.307 Y108.522 E5.26097
G1 X81.55 Y107.875 E5.28396
G1 X81.665 Y107.595 E5.29403
G1 X82.058 Y106.743 E5.32523
G1 X82.436 Y106.068 E5.35096
G1 X82.544 Y105.89 E5.35789
G1 X83.064 Y105.11 E5.38907
G1 X83.533 Y104.512 E5.41434
G1 X83.783 Y104.215 E5.42726
G1 X84.417 Y103.524 E5.45845
G1 X85.333 Y102.704 E5.49934
G0 F6000 X85.582 Y103.017
G1 F1200 X85.746 Y102.886 E5.50632
G1 X86.49 Y102.343 E5.53695
G1 X87.021 Y102.012 E5.55777
G1 X87.189 Y101.914 E5.56423
G1 X88.004 Y101.485 E5.59487
G1 X88.503 Y101.265 E5.61301
G1 X88.783 Y101.15 E5.62307
G1 X89.649 Y100.837 E5.6537
G1 X90.366 Y100.641 E5.67842
G1 X90.712 Y100.559 E5.69025
G1 X91.616 Y100.385 E5.72087
G1 X92.25 Y100.312 E5.7421
G1 X92.891 Y100.257 E5.76349
G1 X93.154 Y100.238 E5.77226
G1 X115.675 Y98.87 E6.5227
G1 X116.37 Y98.836 E6.54584
G1 X116.651 Y98.826 E6.55519
G1 X117.456 Y98.808 E6.58197
G1 X117.859 Y98.806 E6.59538
G1 X118.269 Y98.816 E6.60902
G1 X118.765 Y98.837 E6.62553
G1 X119.093 Y98.856 E6.63646
G1 X119.611 Y98.894 E6.65373
G1 X119.915 Y98.921 E6.66388
G1 X120.452 Y98.976 E6.68184
G1 X120.743 Y99.01 E6.69158
G1 X121.088 Y99.055 E6.70315
G1 X121.377 Y99.097 E6.71287
G1 X121.604 Y99.133 E6.72051
G1 X121.922 Y99.188 E6.73124
G1 X122.659 Y99.328 E6.7562
G1 X122.955 Y99.389 E6.76625
G1 X123.442 Y99.499 E6.78285
G1 X124.044 Y99.648 E6.80348
G1 X124.485 Y99.768 E6.81868
G1 X125.05 Y99.934 E6.83827
G1 X125.478 Y100.07 E6.8532
G1 X126.039 Y100.261 E6.87291
G1 X126.458 Y100.413 E6.88774
G1 X126.896 Y100.583 E6.90337
G1 X127.168 Y100.693 E6.91312
G1 X127.72 Y100.925 E6.93304
G1 X128.222 Y101.151 E6.95135
G1 X128.978 Y101.516 E6.97927
G1 X129.299 Y101.678 E6.99123
G1 X129.615 Y101.844 E7.0031
G1 X130.085 Y102.101 E7.02092
G1 X130.416 Y102.29 E7.0336
G1 X130.636 Y102.423 E7.04215
G1 X131.255 Y102.807 E7.06638
G1 X131.552 Y102.999 E7.07814
G1 X131.801 Y103.166 E7.08811
G1 X132.268 Y103.487 E7.10696
G1 X132.672 Y103.778 E7.12352
G1 X133.124 Y104.121 E7.14239
G1 X133.387 Y104.327 E7.1535
G1 X133.86 Y104.71 E7.17374
G1 X134.091 Y104.903 E7.18376
G1 X134.253 Y105.042 E7.19086
G1 X134.453 Y105.218 E7.19972
G1 X134.88 Y105.606 E7.21891
G1 X135.249 Y105.953 E7.23575
G1 X135.509 Y106.205 E7.2478
G1 X135.794 Y106.498 E7.26139
G1 X136.187 Y106.917 E7.2805
G1 X136.441 Y107.198 E7.2931
G1 X137.025 Y107.867 E7.32263
G1 X137.252 Y108.135 E7.33431
G1 X137.523 Y108.467 E7.34857
G1 X137.813 Y108.84 E7.36428
G1 X138.151 Y109.294 E7.38311
G1 X138.297 Y109.494 E7.39134
G1 X138.504 Y109.786 E7.40325
G1 X138.728 Y110.113 E7.41643
G1 X138.947 Y110.448 E7.42974
G1 X139.248 Y110.928 E7.44859
G1 X139.499 Y111.348 E7.46486
G1 X139.652 Y111.619 E7.47521
G1 X139.969 Y112.226 E7.49799
G1 X140.077 Y112.45 E7.50626
G1 X140.441 Y113.296 E7.53689
G1 X140.706 Y114.089 E7.5647
G1 X140.743 Y114.216 E7.5691
G1 X140.962 Y115.11 E7.59971
G1 X141.057 Y115.662 E7.61834
G1 X141.1 Y115.959 E7.62832
G1 X141.192 Y116.875 E7.65894
G1 X141.189 Y118.131 E7.70072
G1 X141.184 Y118.212 E7.70342
G1 X141.139 Y118.735 E7.72088
G1 X141.116 Y118.941 E7.72777
G1 X140.974 Y119.851 E7.75841
G1 X140.673 Y121.006 E7.7981
G1 X140.603 Y121.224 E7.80572
G1 X140.284 Y122.087 E7.83632
G1 X139.971 Y122.764 E7.86113
G1 X139.831 Y123.041 E7.87145
G1 X139.628 Y123.425 E7.8859
G1 X139.384 Y123.844 E7.90202
G1 X139.076 Y124.347 E7.92164
G1 X138.763 Y124.828 E7.94073
G1 X138.297 Y125.504 E7.96804
G1 X138.05 Y125.848 E7.98212
G1 X137.897 Y126.052 E7.9906
G1 X137.726 Y126.273 E7.9999
G1 X137.307 Y126.802 E8.02234
G1 X136.887 Y127.288 E8.04371
G1 X136.892 Y127.293 E8.04394
G1 X136.169 Y128.102 E8.08003
G1 X135.717 Y128.578 E8.10186
G1 X135.195 Y129.094 E8.12627
G1 X134.835 Y129.436 E8.14279
G1 X134.61 Y129.641 E8.15291
G1 X134.346 Y129.875 E8.16465
G1 X134.157 Y130.039 E8.17297
G1 X133.763 Y130.372 E8.19013
G1 X133.453 Y130.625 E8.20344
G1 X133.244 Y130.788 E8.21225
G1 X132.715 Y131.19 E8.23435
G1 X132.439 Y131.394 E8.24577
G1 X132.176 Y131.58 E8.25648
G1 X131.862 Y131.795 E8.26914
G1 X131.478 Y132.046 E8.28439
G1 X130.661 Y132.555 E8.31641
G1 X130.127 Y132.866 E8.33696
G1 X129.356 Y133.286 E8.36617
G1 X128.881 Y133.53 E8.38393
G1 X128.27 Y133.824 E8.40648
G1 X127.931 Y133.98 E8.41889
G1 X127.573 Y134.137 E8.43189
G1 X127.327 Y134.241 E8.44078
G1 X126.916 Y134.409 E8.45554
G1 X126.645 Y134.515 E8.46522
G1 X126.12 Y134.711 E8.48386
G1 X125.87 Y134.799 E8.49268
G1 X125.612 Y134.886 E8.50173
G1 X125.207 Y135.017 E8.51589
G1 X124.73 Y135.162 E8.53247
G1 X124.295 Y135.283 E8.54749
G1 X123.55 Y135.472 E8.57305
G1 X123.2 Y135.554 E8.58501
G1 X122.81 Y135.639 E8.59828
G1 X122.481 Y135.705 E8.60944
G1 X121.751 Y135.84 E8.63414
G1 X121.413 Y135.897 E8.64554
G1 X120.924 Y135.969 E8.66198
G1 X120.622 Y136.008 E8.6721
G1 X120.38 Y136.036 E8.68021
G1 X120.021 Y136.074 E8.69221
G1 X119.625 Y136.109 E8.70544
G1 X118.781 Y136.162 E8.73356
G1 X118.326 Y136.18 E8.74871
G1 X117.649 Y136.192 E8.77123
G1 X117.352 Y136.193 E8.78111
G1 X116.951 Y136.187 E8.79445
G1 X116.52 Y136.173 E8.80879
G1 X115.645 Y136.13 E8.83793
G1 X96.801 Y134.986 E9.46583
G1 X93.101 Y134.759 E9.58913
G1 X92.43 Y134.708 E9.61151
G1 X91.866 Y134.65 E9.63037
G1 X91.766 Y134.637 E9.63372
G1 X91.209 Y134.549 E9.65248
G1 X90.976 Y134.506 E9.66036
G1 X90.079 Y134.3 E9.69097
G1 X89.391 Y134.084 E9.71495
G1 X89.143 Y133.997 E9.7237
G1 X88.288 Y133.655 E9.75432
G1 X87.529 Y133.275 E9.78255
G1 X87.27 Y133.132 E9.79239
G1 X86.484 Y132.652 E9.82303
G1 X85.838 Y132.183 E9.84958
G1 X85.641 Y132.028 E9.85792
G1 X84.943 Y131.427 E9.88855
G1 X84.477 Y130.962 E9.91045
G1 X84.317 Y130.792 E9.91821
G1 X83.716 Y130.095 E9.94882
G1 X83.311 Y129.546 E9.97151
G1 X83.182 Y129.359 E9.97907
G1 X82.692 Y128.579 E10.00971
G1 X82.307 Y127.834 E10.0376
G1 X82.131 Y127.458 E10.05141
G1 X81.777 Y126.608 E10.08203
G1 X81.483 Y125.672 E10.11466
G1 X81.446 Y125.532 E10.11948
G1 X81.194 Y124.278 E10.16202
G1 X81.14 Y123.888 E10.17512
G1 X81.055 Y122.999 E10.20482
G1 X81.047 Y122.849 E10.20981
G1 X81.032 Y122.372 E10.22569
G1 X81.027 Y121.68 E10.2487
G1 X81.029 Y113.148 E10.53248
G1 X81.039 Y112.455 E10.55553
G1 X81.066 Y111.839 E10.57604
G1 X81.074 Y111.729 E10.57971
G1 X81.119 Y111.254 E10.59558
G1 X81.147 Y111.017 E10.60351
G1 X81.382 Y109.725 E10.64719
G1 X81.433 Y109.518 E10.65428
G1 X81.692 Y108.635 E10.68489
G1 X81.92 Y108.027 E10.70649
G1 X82.035 Y107.747 E10.71655
G1 X82.421 Y106.911 E10.74718
G1 X82.778 Y106.275 E10.77144
G1 X82.886 Y106.097 E10.77836
G1 X83.397 Y105.332 E10.80896
G1 X83.839 Y104.77 E10.83274
G1 X84.089 Y104.473 E10.84565
G1 X84.711 Y103.795 E10.87626
G1 X85.582 Y103.017 E10.9151
G0 F6000 X85.832 Y103.329
G1 F1200 X85.996 Y103.198 E10.92208
G1 X86.726 Y102.667 E10.9521
G1 X87.223 Y102.357 E10.97159
G1 X87.391 Y102.259 E10.97806
G1 X88.19 Y101.839 E11.00808
G1 X88.655 Y101.635 E11.02497
G1 X88.935 Y101.52 E11.03503
G1 X89.785 Y101.214 E11.06508
G1 X90.458 Y101.03 E11.08829
G1 X90.804 Y100.948 E11.10011
G1 X91.691 Y100.779 E11.13015
G1 X92.284 Y100.71 E11.15
G1 X92.925 Y100.655 E11.1714
G1 X93.178 Y100.637 E11.17984
G1 X115.695 Y99.269 E11.93014
G1 X116.39 Y99.235 E11.95328
G1 X116.66 Y99.226 E11.96227
G1 X117.465 Y99.208 E11.98905
G1 X117.852 Y99.206 E12.00192
G1 X118.252 Y99.216 E12.01523
G1 X118.748 Y99.237 E12.03174
G1 X119.063 Y99.255 E12.04223
G1 X119.581 Y99.293 E12.05951
G1 X119.874 Y99.319 E12.06929
G1 X120.411 Y99.374 E12.08724
G1 X120.691 Y99.407 E12.09662
G1 X121.036 Y99.452 E12.10819
G1 X121.315 Y99.492 E12.11757
G1 X121.542 Y99.528 E12.12521
G1 X121.848 Y99.581 E12.13554
G1 X122.585 Y99.721 E12.16049
G1 X122.869 Y99.779 E12.17013
G1 X123.083 Y99.826 E12.17742
G1 X123.346 Y99.888 E12.18641
G1 X123.948 Y100.037 E12.20704
G1 X124.372 Y100.152 E12.22165
G1 X124.937 Y100.318 E12.24123
G1 X125.349 Y100.448 E12.2556
G1 X125.91 Y100.639 E12.27531
G1 X126.314 Y100.786 E12.28961
G1 X126.752 Y100.956 E12.30524
G1 X127.013 Y101.062 E12.31461
G1 X127.565 Y101.294 E12.33452
G1 X128.048 Y101.512 E12.35215
G1 X128.804 Y101.877 E12.38007
G1 X129.113 Y102.032 E12.39157
G1 X129.609 Y102.295 E12.41024
G1 X129.892 Y102.451 E12.42099
G1 X130.214 Y102.636 E12.43334
G1 X130.426 Y102.763 E12.44156
G1 X131.038 Y103.143 E12.46552
G1 X131.335 Y103.335 E12.47728
G1 X131.575 Y103.495 E12.48688
G1 X132.042 Y103.816 E12.50572
G1 X132.43 Y104.097 E12.52166
G1 X132.882 Y104.44 E12.54053
G1 X133.135 Y104.638 E12.55122
G1 X133.608 Y105.021 E12.57146
G1 X133.831 Y105.207 E12.58112
G1 X133.993 Y105.346 E12.58822
G1 X134.185 Y105.515 E12.59672
G1 X134.606 Y105.897 E12.61563
G1 X134.975 Y106.244 E12.63248
G1 X135.228 Y106.49 E12.64422
G1 X135.503 Y106.772 E12.65732
G1 X135.896 Y107.191 E12.67642
G1 X136.14 Y107.461 E12.68853
G1 X136.724 Y108.13 E12.71806
G1 X136.942 Y108.388 E12.7293
G1 X137.213 Y108.72 E12.74355
G1 X137.493 Y109.079 E12.75869
G1 X137.831 Y109.533 E12.77752
G1 X137.97 Y109.725 E12.7854
G1 X138.287 Y110.175 E12.80371
G1 X138.398 Y110.338 E12.81027
G1 X138.608 Y110.66 E12.82306
G1 X138.909 Y111.14 E12.8419
G1 X139.15 Y111.544 E12.85755
G1 X139.303 Y111.815 E12.8679
G1 X139.609 Y112.4 E12.88986
G1 X139.717 Y112.624 E12.89813
G1 X140.073 Y113.454 E12.92817
G1 X140.322 Y114.201 E12.95435
G1 X140.359 Y114.328 E12.95875
G1 X140.573 Y115.205 E12.98878
G1 X140.661 Y115.719 E13.00612
